img/logo.svg

<svg width="243" height="33" viewBox="0 0 243 33" fill="none" xmlns="http://www.w3.org/2000/svg">
<path d="M48.0125 27.6361L56.079 5.61787H60.9351L69.0078 27.6361H65.1701L63.2016 22.1967H53.6882L51.7508 27.6361H48.0125ZM54.7377 19.1256H62.1211L58.5132 9.10687H58.3518L54.7377 19.1256Z" fill="#142251"/>
<path d="M74.7208 27.6361V5.62393H82.1042C84.0044 5.62393 85.5631 5.71478 86.7802 5.8965C87.9911 6.07822 88.9474 6.40532 89.6491 6.87173C90.3508 7.34419 90.8601 7.99232 91.1768 8.82217C91.4935 9.65202 91.6984 10.712 91.7853 11.9901C91.8722 13.2682 91.9157 14.8189 91.9157 16.63C91.9157 18.4411 91.8722 19.9918 91.7853 21.2699C91.6984 22.548 91.4935 23.608 91.1768 24.4379C90.8601 25.2677 90.3508 25.9219 89.6491 26.3883C88.9474 26.8547 87.9911 27.1818 86.7802 27.3635C85.5693 27.5452 84.0106 27.6361 82.1042 27.6361H74.7208ZM78.428 24.5651H81.7751C82.9985 24.5651 84.0107 24.5408 84.8117 24.4863C85.6066 24.4318 86.24 24.2864 86.6995 24.0381C87.159 23.7897 87.5006 23.3899 87.7179 22.8387C87.9352 22.2815 88.0719 21.5001 88.1277 20.4885C88.1836 19.4769 88.2085 18.1928 88.2085 16.63C88.2085 15.0733 88.1836 13.7952 88.1277 12.7897C88.0719 11.7902 87.929 11.0028 87.6993 10.4395C87.4695 9.87614 87.1218 9.4703 86.6498 9.22196C86.1779 8.97361 85.5507 8.82823 84.762 8.77371C83.9734 8.7192 82.9798 8.69497 81.7751 8.69497H78.428V24.5651Z" fill="#142251"/>
<path d="M99.1874 27.6361V5.62393H109.719C111.141 5.62393 112.29 5.78141 113.166 6.10245C114.041 6.42348 114.693 6.88384 115.134 7.49563C115.569 8.10135 115.867 8.82823 116.022 9.67019C116.177 10.5122 116.252 11.4329 116.252 12.4384C116.252 13.1652 116.184 13.9588 116.041 14.8249C115.898 15.6911 115.594 16.4786 115.122 17.1933C114.65 17.9081 113.911 18.423 112.905 18.744L116.612 27.6422H112.675L109.067 18.6471L110.017 19.1256C109.862 19.1922 109.682 19.2286 109.477 19.2346C109.266 19.2468 109.024 19.2528 108.738 19.2528H102.901V27.6361H99.1874ZM102.895 16.1818H108.142C109.167 16.1818 109.98 16.1151 110.57 15.9758C111.16 15.8365 111.595 15.6184 111.88 15.3216C112.166 15.0248 112.346 14.6372 112.42 14.1708C112.495 13.7043 112.538 13.1228 112.538 12.4444C112.538 11.7418 112.501 11.1482 112.42 10.6696C112.346 10.1911 112.172 9.80345 111.911 9.51876C111.65 9.23407 111.228 9.02206 110.651 8.89486C110.073 8.76766 109.278 8.70103 108.272 8.70103H102.895V16.1818Z" fill="#142251"/>
<path d="M121.139 27.6361L129.206 5.61787H134.062L142.134 27.6361H138.297L136.328 22.1967H126.815L124.877 27.6361H121.139ZM127.864 19.1256H135.248L131.64 9.10687H131.478L127.864 19.1256Z" fill="#142251"/>
<path d="M155.026 27.8905C154.219 27.8905 153.324 27.8723 152.356 27.8239C151.381 27.7815 150.431 27.7209 149.499 27.6482C148.568 27.5755 147.723 27.4907 146.959 27.4059V24.4318C147.748 24.4984 148.574 24.559 149.437 24.6256C150.3 24.6923 151.126 24.7407 151.915 24.771C152.703 24.8013 153.38 24.8195 153.952 24.8195C155.113 24.8195 156.019 24.7649 156.671 24.662C157.33 24.5529 157.851 24.3833 158.249 24.1471C158.51 23.9775 158.702 23.7655 158.82 23.505C158.938 23.2506 159.019 22.9478 159.05 22.5904C159.081 22.2391 159.099 21.8514 159.099 21.4213C159.099 20.8459 159.075 20.3674 159.031 19.9797C158.988 19.5981 158.888 19.2952 158.733 19.0832C158.578 18.8712 158.342 18.7137 158.013 18.6168C157.684 18.5199 157.261 18.4411 156.734 18.3745L151.356 17.7627C150.306 17.6355 149.449 17.4175 148.779 17.1085C148.114 16.7996 147.599 16.3877 147.239 15.8789C146.879 15.3701 146.63 14.7583 146.5 14.0557C146.369 13.353 146.301 12.5716 146.301 11.7176C146.301 10.288 146.5 9.15533 146.891 8.32548C147.282 7.49563 147.847 6.85962 148.58 6.42349C149.313 5.98737 150.182 5.69661 151.188 5.5573C152.194 5.41798 153.312 5.35135 154.535 5.35135C155.386 5.35135 156.262 5.37557 157.162 5.43009C158.056 5.4846 158.907 5.54518 159.702 5.62393C160.503 5.69661 161.161 5.79959 161.689 5.92679V8.84034C161.143 8.75554 160.503 8.6768 159.77 8.61623C159.037 8.5496 158.28 8.50114 157.491 8.47085C156.703 8.44056 155.97 8.42239 155.293 8.42239C154.157 8.42239 153.244 8.47085 152.554 8.56777C151.865 8.66468 151.337 8.81612 150.965 9.03418C150.524 9.27042 150.263 9.59145 150.176 10.0094C150.089 10.4274 150.046 10.9422 150.046 11.5601C150.046 12.2869 150.095 12.8442 150.195 13.2379C150.294 13.6317 150.524 13.9042 150.884 14.0557C151.244 14.2071 151.797 14.3222 152.542 14.407L157.926 15.0188C158.603 15.0854 159.217 15.1823 159.764 15.3216C160.31 15.461 160.795 15.6911 161.223 16.0122C161.652 16.3332 161.981 16.7936 162.223 17.3872C162.378 17.684 162.49 18.0292 162.571 18.4109C162.645 18.7925 162.714 19.2165 162.769 19.6768C162.825 20.1372 162.85 20.6521 162.85 21.2275C162.85 22.445 162.726 23.4566 162.471 24.2683C162.217 25.0799 161.869 25.722 161.422 26.2066C160.975 26.6851 160.422 27.0485 159.764 27.2969C159.106 27.5452 158.385 27.7027 157.597 27.7754C156.796 27.8542 155.945 27.8905 155.026 27.8905Z" fill="#142251"/>
<path d="M174.444 27.6361V8.78583H167.588V5.61787H184.976V8.78583H178.151V27.6361H174.444Z" fill="#142251"/>
<path d="M190.782 5.62393H205.81V8.69497H194.495V15.0006H204.27V18.0717H194.495V24.5711H205.81V27.6422H190.782V5.62393Z" fill="#142251"/>
<path d="M212.628 5.62393H216.335V27.6422H212.628V5.62393Z" fill="#142251"/>
<path d="M222.011 27.6361L230.077 5.61787H234.934L243 27.6361H239.162L237.194 22.1967H227.687L225.749 27.6361H222.011ZM228.736 19.1256H236.12L232.512 9.10687H232.35L228.736 19.1256Z" fill="#142251"/>
<path d="M37.7368 32.7866H31.889C31.4597 32.7866 31.1118 32.4522 31.1118 32.0395C31.1118 31.6268 31.4597 31.2924 31.889 31.2924H36.4118L32.7292 24.953L28.5654 32.3917C28.4285 32.6336 28.1657 32.7866 27.8807 32.7866H23.9723C23.6984 32.7866 23.443 32.6478 23.3024 32.4201C23.1617 32.1925 23.158 31.9114 23.2876 31.6802L29.9163 20.0331L29.091 18.5247L24.7236 25.9313C24.5127 26.2906 24.0352 26.4187 23.6651 26.2124C23.2913 26.0096 23.1617 25.5543 23.3727 25.195L28.4433 16.5966C28.5802 16.3618 28.8393 16.2159 29.1206 16.2159C29.1243 16.2159 29.128 16.2159 29.1317 16.2159C29.4167 16.2195 29.6757 16.3725 29.809 16.6144L31.4893 19.6916C31.6114 19.9121 31.6077 20.1789 31.4819 20.3959L25.2825 31.2889H27.4143L32.0297 23.0427C32.1629 22.8008 32.4257 22.6514 32.707 22.6478C32.7107 22.6478 32.7107 22.6478 32.7144 22.6478C32.9957 22.6478 33.2547 22.7937 33.3917 23.032L38.4141 31.6731C38.5474 31.9043 38.5474 32.1853 38.4067 32.4166C38.2661 32.6478 38.0107 32.7866 37.7368 32.7866Z" fill="#142251"/>
<path d="M20.1046 33H16.9438C16.6699 33 16.4146 32.8613 16.2739 32.6336C16.1333 32.4059 16.1296 32.1249 16.2628 31.8936L26.5002 14.0815L25.6415 12.4379L22.9989 16.9061C22.7879 17.2654 22.3142 17.3899 21.9404 17.1871C21.5665 16.9843 21.437 16.529 21.648 16.1697L25.0086 10.4849C25.1492 10.2465 25.4083 10.1113 25.7044 10.1078C25.9894 10.1149 26.2485 10.2714 26.378 10.5205L28.0731 13.7648C28.1879 13.9854 28.1842 14.2451 28.0583 14.4621L18.2577 31.5094H19.6494L21.4814 28.4002C21.6924 28.0409 22.1698 27.9128 22.5399 28.1192C22.9138 28.322 23.0433 28.7773 22.8323 29.1366L20.7745 32.6265C20.645 32.8577 20.3859 33 20.1046 33Z" fill="#142251"/>
<path d="M13.1576 32.7866H9.26027C8.98268 32.7866 8.7273 32.6443 8.59036 32.4166C8.44972 32.1889 8.44972 31.9043 8.58296 31.6731L12.7615 24.5475C12.9725 24.1882 13.4463 24.0601 13.8201 24.2629C14.1939 24.4657 14.3271 24.921 14.1162 25.2803L10.5927 31.2889H12.7097L20.1453 18.7168C20.3563 18.3575 20.83 18.233 21.2038 18.4358C21.5776 18.6386 21.7072 19.0939 21.4962 19.4532L13.8386 32.4059C13.6942 32.6443 13.4351 32.7866 13.1576 32.7866Z" fill="#142251"/>
<path d="M14.9785 23.0285C14.849 23.0285 14.7194 22.9964 14.5973 22.9324C14.2235 22.7296 14.0903 22.2743 14.3012 21.915L22.7028 7.58555L21.9182 6.16257L17.5434 13.3166C17.325 13.6724 16.8476 13.7898 16.4775 13.5834C16.1074 13.3735 15.9852 12.9146 16.1999 12.5624L21.2816 4.25578C21.4259 4.02099 21.6924 3.88225 21.97 3.8858C22.2513 3.89292 22.5066 4.04233 22.6399 4.28068L24.2758 7.24404C24.4016 7.46816 24.3979 7.73852 24.2647 7.96264L15.6558 22.6478C15.5152 22.8897 15.2524 23.0285 14.9785 23.0285Z" fill="#142251"/>
<path d="M5.19272 32.7866H0.777258C0.499673 32.7866 0.240593 32.6443 0.103651 32.413C-0.0369921 32.1818 -0.033293 31.8972 0.10735 31.666L5.53692 22.6941C5.75159 22.3383 6.22903 22.2174 6.59915 22.4237C6.96926 22.63 7.0951 23.0889 6.88043 23.4447L2.12817 31.2924H4.74858L14.3086 15.6966C14.527 15.3408 15.0044 15.2234 15.3745 15.4333C15.7447 15.6432 15.8668 16.1021 15.6484 16.4578L5.86262 32.4237C5.72198 32.6478 5.4703 32.7866 5.19272 32.7866Z" fill="#142251"/>
<path d="M9.84134 17.8132C9.7081 17.8132 9.57486 17.7812 9.45272 17.7101C9.08261 17.5037 8.95677 17.0448 9.17144 16.6891L14.675 7.59622C14.8897 7.24048 15.3671 7.11953 15.7373 7.32586C16.1074 7.53219 16.2332 7.9911 16.0185 8.34685L10.5149 17.4397C10.3669 17.6816 10.1078 17.8132 9.84134 17.8132Z" fill="#142251"/>
<path d="M17.0178 5.95624C16.8846 5.95624 16.7514 5.92422 16.6292 5.85307C16.2591 5.64674 16.1333 5.18782 16.3479 4.83208L19.0498 0.371034C19.2644 0.0152887 19.7419 -0.105663 20.112 0.10067C20.4821 0.307002 20.608 0.765912 20.3933 1.12166L17.6915 5.5827C17.5471 5.82461 17.2843 5.95624 17.0178 5.95624Z" fill="#142251"/>
</svg>

<svg width="243" height="33" fill="none" xmlns="http://www.w3.org/2000/svg"><path d="M48.013 27.636l8.066-22.018h4.856l8.073 22.018H65.17l-1.968-5.44h-9.514l-1.937 5.44h-3.738zm6.725-8.51h7.383l-3.608-10.02h-.161l-3.614 10.02zm19.982 8.51V5.624h7.384c1.9 0 3.46.09 4.676.272 1.211.182 2.167.51 2.87.976.7.472 1.21 1.12 1.527 1.95.316.83.521 1.89.608 3.168.087 1.278.13 2.829.13 4.64 0 1.811-.043 3.362-.13 4.64-.087 1.278-.291 2.338-.608 3.168-.317.83-.826 1.484-1.528 1.95-.702.467-1.658.794-2.869.975-1.21.182-2.77.273-4.676.273h-7.383zm3.708-3.07h3.347a46.04 46.04 0 003.037-.08c.795-.054 1.428-.2 1.888-.448.459-.248.8-.648 1.018-1.2.217-.556.354-1.338.41-2.35.056-1.011.08-2.295.08-3.858 0-1.557-.024-2.835-.08-3.84-.056-1-.199-1.787-.429-2.35-.23-.564-.577-.97-1.05-1.218-.471-.248-1.098-.394-1.887-.448a44.985 44.985 0 00-2.987-.079h-3.347v15.87zm20.759 3.07V5.624h10.532c1.422 0 2.571.157 3.447.478.875.321 1.527.782 1.968 1.394.435.605.733 1.332.888 2.174.155.842.23 1.763.23 2.768 0 .727-.068 1.52-.211 2.387a6.018 6.018 0 01-.919 2.368c-.472.715-1.211 1.23-2.217 1.551l3.707 8.898h-3.937l-3.608-8.995.95.479a1.47 1.47 0 01-.54.109 12.9 12.9 0 01-.739.018h-5.837v8.383h-3.714zm3.708-11.454h5.247c1.025 0 1.838-.067 2.428-.206.59-.14 1.025-.358 1.31-.654.286-.297.466-.685.54-1.151.075-.467.118-1.048.118-1.727 0-.702-.037-1.296-.118-1.774-.074-.479-.248-.867-.509-1.151-.261-.285-.683-.497-1.26-.624-.578-.127-1.373-.194-2.379-.194h-5.377v7.48zm18.244 11.454l8.067-22.018h4.856l8.072 22.018h-3.837l-1.969-5.44h-9.513l-1.938 5.44h-3.738zm6.725-8.51h7.384l-3.608-10.02h-.162l-3.614 10.02zm27.162 8.764c-.807 0-1.702-.018-2.67-.066a83.054 83.054 0 01-2.857-.176 77.592 77.592 0 01-2.54-.242v-2.974c.789.066 1.615.127 2.478.194a64.15 64.15 0 004.515.194c1.161 0 2.067-.055 2.719-.158.659-.11 1.18-.279 1.578-.515.261-.17.453-.381.571-.642.118-.254.199-.557.23-.915.031-.35.049-.739.049-1.169 0-.575-.024-1.054-.068-1.441-.043-.382-.143-.685-.298-.897-.155-.212-.391-.37-.72-.466a8.39 8.39 0 00-1.279-.242l-5.378-.612c-1.05-.128-1.907-.346-2.577-.655-.665-.308-1.18-.72-1.54-1.23-.36-.508-.609-1.12-.739-1.822a12.805 12.805 0 01-.199-2.338c0-1.43.199-2.563.59-3.393.391-.83.956-1.465 1.689-1.902.733-.436 1.602-.726 2.608-.866a24.573 24.573 0 013.347-.206c.851 0 1.727.025 2.627.08a68.18 68.18 0 012.54.193c.801.073 1.459.176 1.987.303V8.84a27.064 27.064 0 00-1.919-.224 43.636 43.636 0 00-2.279-.145 57.803 57.803 0 00-2.198-.049c-1.136 0-2.049.049-2.739.146-.689.097-1.217.248-1.589.466-.441.236-.702.557-.789.975-.087.418-.13.933-.13 1.551 0 .727.049 1.284.149 1.678.099.394.329.666.689.818.36.151.913.266 1.658.351l5.384.612c.677.066 1.291.163 1.838.303.546.139 1.031.37 1.459.69.429.321.758.782 1 1.375.155.297.267.642.348 1.024.074.381.143.805.198 1.266.056.46.081.975.081 1.55 0 1.218-.124 2.23-.379 3.041-.254.812-.602 1.454-1.049 1.939-.447.478-1 .841-1.658 1.09a8.259 8.259 0 01-2.167.478 26.27 26.27 0 01-2.571.116zm19.418-.254V8.786h-6.856V5.618h17.388v3.168h-6.825v18.85h-3.707zm16.338-22.012h15.028v3.071h-11.315v6.306h9.775v3.07h-9.775v6.5h11.315v3.071h-15.028V5.624zm21.846 0h3.707v22.018h-3.707V5.624zm9.383 22.012l8.066-22.018h4.857L243 27.636h-3.838l-1.968-5.44h-9.507l-1.938 5.44h-3.738zm6.725-8.51h7.384l-3.608-10.02h-.162l-3.614 10.02zM37.737 32.787h-5.848c-.43 0-.777-.335-.777-.748 0-.412.348-.747.777-.747h4.523l-3.683-6.339-4.164 7.439a.788.788 0 01-.684.395h-3.909a.786.786 0 01-.67-.367.726.726 0 01-.014-.74l6.628-11.647-.825-1.508-4.367 7.406a.79.79 0 01-1.059.281.73.73 0 01-.292-1.017l5.07-8.598a.782.782 0 01.678-.381h.01a.782.782 0 01.678.398l1.68 3.078a.713.713 0 01-.007.704l-6.2 10.893h2.132l4.616-8.246a.783.783 0 01.677-.395h.007a.78.78 0 01.678.384l5.022 8.641a.724.724 0 01-.007.744.782.782 0 01-.67.37z" fill="#142251"/><path d="M20.105 33h-3.161a.786.786 0 01-.67-.366.718.718 0 01-.011-.74L26.5 14.08l-.858-1.643-2.643 4.468a.793.793 0 01-1.059.281.73.73 0 01-.292-1.017l3.36-5.685c.141-.239.4-.374.696-.377a.777.777 0 01.674.412l1.695 3.245c.115.22.111.48-.015.697l-9.8 17.047h1.391l1.832-3.109a.79.79 0 011.059-.28.73.73 0 01.292 1.017l-2.058 3.49a.762.762 0 01-.67.373z" fill="#142251"/><path d="M13.158 32.787H9.26a.78.78 0 01-.67-.37.724.724 0 01-.007-.744l4.178-7.125a.794.794 0 011.06-.285.732.732 0 01.295 1.017l-3.523 6.009h2.117l7.435-12.572a.793.793 0 011.059-.281.73.73 0 01.292 1.017L13.84 32.406a.794.794 0 01-.681.38z" fill="#142251"/><path d="M14.979 23.029a.818.818 0 01-.382-.097.732.732 0 01-.296-1.017l8.402-14.33-.785-1.422-4.375 7.154a.8.8 0 01-1.066.266.733.733 0 01-.277-1.02l5.082-8.307a.797.797 0 011.358.025l1.636 2.963a.713.713 0 01-.011.719l-8.61 14.685a.78.78 0 01-.676.38z" fill="#142251"/><path d="M5.193 32.787H.777a.782.782 0 01-.673-.374.714.714 0 01.003-.747l5.43-8.972a.796.796 0 011.062-.27c.37.206.496.665.281 1.02l-4.752 7.848h2.62l9.56-15.595a.796.796 0 011.066-.264c.37.21.493.67.274 1.025L5.863 32.424a.787.787 0 01-.67.363zm4.648-14.974a.766.766 0 01-.388-.103.733.733 0 01-.282-1.02l5.504-9.094a.796.796 0 011.062-.27c.37.206.496.665.281 1.02l-5.503 9.094a.785.785 0 01-.674.373zm7.177-11.857a.766.766 0 01-.389-.103.733.733 0 01-.281-1.02L19.05.37A.796.796 0 0120.112.1c.37.206.496.665.281 1.02l-2.701 4.462a.781.781 0 01-.674.373z" fill="#142251"/></svg>
